**kern	**dynam
*clefC3	*
*k[b-e-]	*
*B-:	*
*M3/4	*
4r	.
=1	=1
4r	.
4r	.
(>4B-	f
=2	=2
4f)	.
4f'	.
4g'	.
=3	=3
2e-	.
4f	.
=4	=4
4B-	.
4r	.
4r	.
=5	=5
2.r	.
=6	=6
2.r	.
=7	=7
!!linebreak:original
4r	.
4r	.
(>4f	f
=8	=8
4b-)	.
4b-'	.
4b-'	.
=9	=9
4a	.
4r	.
(>4f	.
=10	=10
4dd)	.
4dd'	.
4dd'	.
=11	=11
2b-	.
4cc	.
=12	=12
4f	.
4F	.
=:|!|:	=:|!|:
!!linebreak:original
4r	.
=13	=13
2.r	.
=14	=14
4r	.
4r	.
(>4F	p
=15	=15
4f')	.
(>4f	.
4e-)	.
=16	=16
4d-X'	.
(>4d-	.
4A)	.
=17	=17
4B-	.
4F	.
4r	.
=18	=18
4F	.
4r	.
(>4f	f
=19	=19
4b-)	.
4b-'	.
4b-'	.
=20	=20
!!linebreak:original
4a	.
4r	.
(>4f	.
=21	=21
4b-)	.
4b-'	.
4b-'	.
=22	=22
4e-	.
4r	.
4ee-	.
=23	=23
2dd	.
4ee-	.
=24	=24
!!linebreak:original
4dd	.
4r	.
4r	.
=25	=25
4g	.
4d	.
4c	.
=26	=26
4B-'	.
4r	.
=27:|!	=27:|!
!!linebreak:original
4B-	.
4r	.
4r	.
=28!|:	=28!|:
4B-	f
4B-	p
4B-	.
=29	=29
4B-	f
4B-	p
4B-	.
=30	=30
4B-	.
4B-	.
4B-	.
=31	=31
4B-	p
4r	.
4r	.
=32	=32
4A	.
4A	.
4A	.
=33	=33
4B-	.
4B-	.
4B-	.
=34	=34
4c	.
4c	.
4c	.
=35	=35
!!linebreak:original
4f	.
4c	.
4F	.
=36:|!|:	=36:|!|:
!!linebreak:original
4d	.
4d	.
4d	.
=37	=37
4e-	.
4r	.
4r	.
=38	=38
4e-	.
4e-	.
4e-	.
=39	=39
[4f	.
8fL]	.
8e-	.
8d	.
8cJ	.
=40	=40
4B-	.
4r	f
4r	.
=41	=41
4e-	.
4r	f
4r	.
=42	=42
4f	p
4f	.
4f	.
=43	=43
4b-	.
4B-	.
4r	.
=44:|!	=44:|!
4b-	.
4B-	.
=	=
*-	*-
!!!RDF**kern: > = above
